!!!!SEGMENT: pl-kk--kk-i-2--007-003_anonim--missa-regina-caeli-credo.krn
!!!cenid: 16xx:1610
!!!COM: Anonim
!!!COM-rismID: pe30004985
!!!CDT:
!!!CNT:
!!!OPR: Missa Regina caeli
!!!OTL: Credo
!!!OMV: 003
!!!PDT:
!!!AGN: Sacred; Mass
!!!YEC: Copyright 2022 Narodowy Instytut Fryderyka Chopina (https://polishscores.org)
!!!YEM: License CC-BY-4.0 (https://creativecommons.org/licenses/by/4.0)
!!!SMS-siglum: PL-Kk
!!!SMS-shelfmark: Kk.I.2
!!!SMS-shelfwork: 007-003 M
!!!NIFC-rismSourceID: 300258016
!!!NIFC-rismChildID: 300258023
!!!NIFC-islandoraID: pl-kk:750
!!!URL-pdf-islandora: https://repozytorium.nifc.pl/islandora/object/pl-kk%3A750/datastream/PDF/view
!!!URL-scan: https://polish.musicsources.pl/pl/lokalizacje/galeria/rekopisy/5828 @EN{Scan on Polish Music Sources Website} @PL{Skany w portalu Dziedzictwo Muzyki Polskiej w otwartym dostępie}
!!!IIIF: https://repozytorium.nifc.pl/islandora/object/pl-kk%3A750/datastream/IIIF/view
!!!ONB-nifc: Części mszy: Kyrie, Gloria, Credo, Sanctus, Agnus Dei; skany: C: 0021-0023; A: 0121-0123; T: 0226-0228; B: 0323-0325;
!!!AIN: 1 alto 1 bass 1 soprn 1 tenor
!!!key: F:lyd
**kern	**text	**kern	**text	**kern	**text	**kern	**text
*part4	*	*part3	*	*part2	*	*part1	*
*staff4	*	*staff3	*	*staff2	*	*staff1	*
*I"BASSUS	*	*I"TENOR	*	*I"ALTUS	*	*I"CANTUS	*
*Ibass	*	*Itenor	*	*Ialto	*	*Isoprn	*
*ICvox	*	*ICvox	*	*ICvox	*	*ICvox	*
*clefF4	*	*clefC4	*	*clefC4	*	*clefC3	*
*k[b-]	*	*k[b-]	*	*k[b-]	*	*k[b-]	*
*F:lyd	*	*F:lyd	*	*F:lyd	*	*F:lyd	*
*M2/1	*	*M2/1	*	*M2/1	*	*M2/1	*
*met(C)	*	*met(C)	*	*met(C)	*	*met(C)	*
=1-	=1-	=1-	=1-	=1-	=1-	=1-	=1-
*xywh-#323:7775,1502,5967,980	*	*xywh-#226:1551,2396,6043,844	*	*xywh-#121:7765,2976,6129,958	*	*xywh-#21:7739,1554,5996,822	*
*	*	*lig	*	*	*	*	*
!	!	!LO:TX:a:t=2	!	!	!	!	!
0F	Pa-	0F	Pa-	2.A/	Pa-	1r	.
.	.	.	.	4G/	.	.	.
*	*	*	*	*	*	*lig	*
!	!	!	!	!	!	!LO:TX:b:t=2	!
.	.	.	.	4F/	.	0c	Pa-
.	.	.	.	4E/	.	.	.
.	.	.	.	2F/	.	.	.
=2-	=2-	=2-	=2-	=2-	=2-	=2-	=2-
!	!	!LO:TX:a:t=2	!	!	!	!	!
1C,	-trem	0G	.	4E/	-trem	.	.
.	.	.	.	4F/	.	.	.
.	.	.	.	4G/	.	.	.
.	.	.	.	4A/	.	.	.
!	!	!	!	!	!	!LO:TX:b:t=2	!
1G	o-	.	.	1B-	om-	0d	.
*	*	*Xlig	*	*	*	*Xlig	*
=3-	=3-	=3-	=3-	=3-	=3-	=3-	=3-
2.D/	-mni-	1.F	-trem	4A\	.	.	.
.	.	.	.	4F\	-ni-	.	.
.	.	.	.	2B-\	-po-	.	.
!LO:TX:t=P:problem=kreska pseudotaktowa	!	!	!	!	!	!	!
4BB-/	-po-	.	.	.	.	.	.
*	*	*	*	*lig	*	*	*
1F	-ten-	.	.	1A	-ten-	1.c	-trem
.	.	2F/	o-	.	.	.	.
=4-	=4-	=4-	=4-	=4-	=4-	=4-	=4-
!LO:TX:t=P:problem=kreska pseudotaktowa	!	!	!	!	!	!	!
1C,	-tem	4E/	-mni-	1G	.	.	.
.	.	4F/	.	.	.	.	.
.	.	4G/	.	.	.	2c/	o-
.	.	4A/	.	.	.	.	.
*	*	*	*	*Xlig	*	*	*
1G	om-	2B-\	.	2G/	-te(m)	2.d\	-mni-
.	.	2B-\	-po-	2G/	om-	.	.
.	.	.	.	.	.	4e\	.
=5-	=5-	=5-	=5-	=5-	=5-	=5-	=5-
1F	-ni-	4c\	-ten-	2.A\	-ni-	1.f	.
.	.	4B-\	.	.	.	.	.
.	.	2A/	.	.	.	.	.
.	.	.	.	4B-\	.	.	.
!LO:TX:t=P:problem=kreska pseudotaktowa	!	!	!	!	!	!	!
1C	-po-	2G/	-tem	2c\	.	.	.
.	.	2G/	o-	2c\	-po-	2e\	-po-
=6-	=6-	=6-	=6-	=6-	=6-	=6-	=6-
*lig	*	*	*	*lig	*	*	*
1F	-ten-	4F/	-mni-	1A	-ten-	2c/	-ten-
.	.	4G/	.	.	.	.	.
.	.	4A/	.	.	.	1f	.
.	.	4B-\	.	.	.	.	.
1C	.	4c\	.	1G	.	.	.
.	.	4G\	-po-	.	.	.	.
.	.	2c\	-ten-	.	.	2e\	.
*Xlig	*	*	*	*Xlig	*	*	*
=7-	=7-	=7-	=7-	=7-	=7-	=7-	=7-
2FF,/	-tem	2c\	-tem	2A/	-tem	2f\	-tem
2F\	fac-	2c\	fac-	2A/	fac-	2f\	fa-
2F\	-to-	2c\	-to-	2A/	-to-	2f\	-cto-
!LO:TX:t=P:problem=kreska pseudotaktowa	!	!	!	!	!	!	!
2F\	-rem	2c\	-rem	2A/	-re(m)	2f\	-re(m)
=8-	=8-	=8-	=8-	=8-	=8-	=8-	=8-
2.B-\	coe-	2.d\	coe-	4B-\	coe-	1f	coe-
.	.	.	.	4c\	.	.	.
*	*	*	*	*custos:d	*	*	*
.	.	.	.	2d\	.	.	.
!	!	!	!	!LO:LB:g=original	!	!	!
*	*	*	*	*xywh-#121:7748,3826,6188,1252	*	*	*
4A\	-[[li]]-	4c\	.	.	.	.	.
1G	.	1B-	.	1d	-li	1.g	-li
=9-	=9-	=9-	=9-	=9-	=9-	=9-	=9-
!	!	!	!	!LO:N:acc=#	!	!	!
2G,\	-li	2.d\	-li	2Bn\	et	.	.
!LO:TX:t=P:problem=kreska pseudotaktowa	!	!	!	!	!	!	!
2F\	et	.	.	1c	ter-	2a\	et
*	*	*custos:d	*	*	*	*	*
.	.	4d\	et	.	.	.	.
!	!	!LO:LB:g=original	!	!	!	!	!
*	*	*xywh-#226:1811,3166,5687,755	*	*	*	*	*
1G	ter-	2d\	ter-	.	.	1g	ter-
!	!	!	!	!LO:N:acc=#	!	!	!
.	.	2G/	.	2Bn\	-rae	.	.
=10-	=10-	=10-	=10-	=10-	=10-	=10-	=10-
*custos:C	*	*	*	*	*	*	*
!LO:TX:t=P:problem=kreska pseudotaktowa	!	!	!	!	!	!	!
1C	-rae	1G,	-rae	1c	vi-	1e	-rae
!LO:LB:g=original	!	!	!	!	!	!	!
*xywh-#323:7707,2289,6077,980	*	*	*	*	*	*	*
2C/	vi-	2G/	vi-	2c\	-si-	2e\	vi-
4C/	-si-	4G/	-ſi-	4c\	-bi-	4e\	-ſi-
2C/	-bi-	2G/	-bi-	2c\	-li-	2e\	-bi-
=11-	=11-	=11-	=11-	=11-	=11-	=11-	=11-
.	.	.	.	.	.	.	.
4C/	-li-	4c\	-li-	4G/	-u(m)	4e\	-li-
!LO:TX:t=P:problem=kreska pseudotaktowa	!	!	!	!	!	!	!
2AA/	-um	2c\	-um	2A/	om-	2e\	-um
2.D/	om-	2c\	o-	2A/	-ni-	2.f\	om-
!	!	!LO:TX:a:t=P:problem=♮ above	!	!	!	!	!
!	!	!LO:N:acc=#	!	!	!	!	!
.	.	2Bn\	-mni-	2F/	-u(m)	.	.
*	*	*	*	*	*	*custos:e	*
4D/	-ni-	.	.	.	.	4f\	-ni-
!	!	!	!	!	!	!LO:LB:g=original	!
=12-	=12-	=12-	=12-	=12-	=12-	=12-	=12-
*	*	*	*	*	*	*xywh-#21:7856,2230,5741,873	*
2C,/	-um	2c\	-um	4G/	et	2e\	-um
.	.	.	.	2c\	in-	.	.
!LO:TX:t=P:problem=kreska pseudotaktowa	!	!	!	!	!	!	!
2F\	et	2A/	et	.	.	2f\	et
.	.	.	.	4c\	-vi-	.	.
4C/	in	4G/	in	8c\L	.	4e\	in-
.	.	.	.	8B-y\	.	.	.
2D/	vi-	2F/	vi-	8A\	.	2d\	-vi-
.	.	.	.	8G\J	.	.	.
.	.	.	.	4A/	.	.	.
4BB-/	-si-	4G/	-ſi-	4D/	-ſi-	4d\	-ſi-
=13-	=13-	=13-	=13-	=13-	=13-	=13-	=13-
1.AA	-bi-	1A	-bi-	1E	-bi-	2c#X/	-bi-
.	.	.	.	.	.	1d	.
.	.	1E	-li-	1A	-li-	.	.
!LO:TX:t=P:problem=kreska pseudotaktowa	!	!	!	!	!	!	!
2AA/	-li-	.	.	.	.	2c#X/	-li-
=14-	=14-	=14-	=14-	=14-	=14-	=14-	=14-
4D,\	-um	4F#X/	-um	4A\	-u(m)	4d\	-um
2D/	et	2A\	et	2d\	et	2f#y\	et
4D/	in	4A\	in	4d\	in	4f#\	in
2D/	u-	2A\	u-	2d\	u-	2f#\	u-
!LO:TX:t=P:problem=kreska pseudotaktowa	!	!	!	!	!	!	!
2D/	-num	2A\	-num	2d\	-nu(m)	2f#\	-num
=15-	=15-	=15-	=15-	=15-	=15-	=15-	=15-
*	*	*	*	*custos:G	*	*	*
2.GG/	do-	2.B-y\	Do-	2d\	do-	2g\	Do-
!	!	!	!	!LO:LB=original	!	!	!
*	*	*	*	*xywh-#122:1692,740,5818,930	*	*	*
.	.	.	.	2G/	-mi-	2d\	-mi-
4GG/	-mi-	4B-\	-mi-	.	.	.	.
4C/	-num	1c	-num	2G/	-nu(m)	4e\	-num
2C/	Je-	.	.	.	.	2g\	Je-
.	.	.	.	2.G/	Je-	.	.
4D\	.	.	.	.	.	4fny\	.
=16-	=16-	=16-	=16-	=16-	=16-	=16-	=16-
4E-X\	.	2.G/	Je-	.	.	2e-X\	.
4F\	.	.	.	4A\	.	.	.
*custos:C	*	*	*	*	*	*	*
2G\	.	.	.	2B-\	.	2d\	-ſum
!LO:LB:g=original	!	!	!	!	!	!	!
*xywh-#323:7825,3083,6128,1005	*	*	*	*	*	*	*
.	.	4Fny/	.	.	.	.	.
1C	-ſum	4E-X/	.	2c\	-ſum	1.g	chri-
.	.	4D/	.	.	.	.	.
.	.	4C/	.	2c\	Chris-	.	.
*	*	*custos:B-	*	*	*	*	*
.	.	4c\	-ſum	.	.	.	.
!	!	!LO:LB:g=original	!	!	!	!	!
*	*	*xywh-#226:1877,3907,5754,836	*	*	*	*	*
=17-	=17-	=17-	=17-	=17-	=17-	=17-	=17-
!	!	!LO:TX:a:t=P:problem=♮ above	!	!	!	!	!
!	!	!LO:N:acc=#	!	!	!	!	!
0GG	chri-	2Bn\	Chri-	2d\	.	.	.
.	.	2c\	.	1c	.	2eny\	.
.	.	2d\	.	.	.	1d	-ſtum
!	!	!	!	!LO:N:acc=#	!	!	!
.	.	2G/	.	2Bn/	.	.	.
=18-	=18-	=18-	=18-	=18-	=18-	=18-	=18-
2C,/	-ſtum	0G	-ſtum	1c	-tum	1e	.
2.C/	fi-	.	.	.	.	.	.
.	.	.	.	2r	.	1r	.
4D/	-li-	.	.	.	.	.	.
!LO:TX:t=P:problem=kreska pseudotaktowa	!	!	!	!	!	!	!
2Eny\	-um	.	.	2.c\	fi-	.	.
=19-	=19-	=19-	=19-	=19-	=19-	=19-	=19-
1F	De-	2r	.	.	.	2.cny/	fi-
.	.	.	.	4B-y\	-li-	.	.
.	.	2.c\	fi-	2A/	-u(m)	.	.
.	.	.	.	.	.	4d\	-li-
2C,/	-i	.	.	2G/	de-	2e\	-um
.	.	4B-y\	-li-	.	.	.	.
1D\	u-	2A\	-um	2F/	-i	2.f\	De-
=20-	=20-	=20-	=20-	=20-	=20-	=20-	=20-
.	.	2A\	De-	2C/	u-	.	.
.	.	.	.	.	.	4e\	-i
*	*	*	*	*	*	*custos:e	*
2BB-/	-ni	2B-\	-i	2F/	-ni	2d\	u-
!	!	!	!	!	!	!LO:LB:g=original	!
*	*	*	*	*	*	*xywh-#21:7819,3089,5785,807	*
1.C	ge-	2B-\	u-	1.c	ge-	2e\	-ni
.	.	2A/	-ni	.	.	1f\	ge-
=21-	=21-	=21-	=21-	=21-	=21-	=21-	=21-
.	.	2.G/	ge-	.	.	.	.
2C/	-ni-	.	.	2c\	-ni-	2e\	-ni-
.	.	4G/	-ni-	.	.	.	.
2FF,/	-tum	4F/	-tum	2A/	-tu(m)	1f	-tum
.	.	2c\	et	.	.	.	.
1F\	et	.	.	1A\	et	.	.
.	.	4A\	ex	.	.	.	.
=22-	=22-	=22-	=22-	=22-	=22-	=22-	=22-
.	.	2.d\	pa-	.	.	1f	et
2D\	ex-	.	.	2F/	ex	.	.
.	.	4c\	.	.	.	.	.
2.G\	-pa-	4B-\	.	2.B-\	pa-	2d\	ex
.	.	4A\	.	.	.	.	.
.	.	1B-\	.	.	.	2.g\	pa-
4F\	.	.	.	4A\	.	.	.
=23-	=23-	=23-	=23-	=23-	=23-	=23-	=23-
4E-X\	.	.	.	4G\	.	.	.
*	*	*	*	*custos:G	*	*	*
4D\	.	.	.	4F/	.	4f\	.
!	!	!	!	!LO:LB:g=original	!	!	!
*	*	*	*	*xywh-#122:1701,1573,5836,798	*	*	*
1E-	.	1G	-tre	2G/	.	4e-X\	.
.	.	.	.	.	.	4d\	.
.	.	.	.	2B-\	-tre	2e-\	.
!LO:TX:t=P:problem=kreska pseudotaktowa	!	!	!	!	!	!	!
2F\	-tre	2.A/	na-	4A/	na-	1c\	-tre
.	.	.	.	4G/	.	.	.
=24-	=24-	=24-	=24-	=24-	=24-	=24-	=24-
1D	na-	.	.	4F/	.	.	.
.	.	4G/	.	4E/	.	.	.
!	!	!	!	!	!	!LO:N:acc=#	!
.	.	2F/	.	2D/	.	2Bn/	na-
1.C,	-tum	1G	-tum	1.E	-tu(m)	1.c	-tum
=25-	=25-	=25-	=25-	=25-	=25-	=25-	=25-
.	.	1.c	an-	.	.	.	.
1C	an-	.	.	1G	an-	1eny	an-
*custos:C	*	*	*	*	*	*	*
2Eny\	-te	2c\	-te	2G/	-te	2e\	-te
!LO:LB:g=original	!	!	!	!	!	!	!
=26-	=26-	=26-	=26-	=26-	=26-	=26-	=26-
*xywh-#323:7766,3751,6162,1479	*	*	*	*	*	*	*
2.C/	om-	2.c\	o-	2.G/	om-	2.e\	om-
*	*	*custos:B-	*	*	*	*	*
4C/	-ni-	4c\	-mni-	4G/	-ni-	4e\	-ni-
*	*	*xywh-#226:8030,565,6139,1125	*	*	*	*	*
2G,\	-a	2B-\	-a	2G/	-a	2d\	-a
2.GG/	om-	2.B-\	o-	2.G/	om-	2.d\	om-
=27-	=27-	=27-	=27-	=27-	=27-	=27-	=27-
.	.	.	.	.	.	.	.
4GG/	-ni-	4B-\	-mni-	4G/	-ni-	4d\	-ni-
!LO:TX:t=P:problem=kreska pseudotaktowa	!	!	!	!	!	!	!
2D,/	-a	2.A/	-a	2F/	-a	2d\	-a
1.AA	se-	.	.	2E/	ſe-	2c#X/	ſae-
.	.	4G/	.	.	.	.	.
.	.	2F/	.	2F/	.	1d\	.
=28-	=28-	=28-	=28-	=28-	=28-	=28-	=28-
.	.	2Eny/	ſae-	2.A/	.	.	.
2AA/	-cu-	2A\	-cu-	.	.	2c#X/	-cu-
.	.	.	.	4A/	-cu-	.	.
2D,/	-la	2A\	-la	2F#X/	-la	2d\	-la
2D/	De-	2A\	De-	2F#/	de-	2d\	De-
=29-	=29-	=29-	=29-	=29-	=29-	=29-	=29-
4F#X,\	-um	4A\	-um	4A\	-u(m)	4d\	-um
4F#\	de	4A\	de	4A\	de	4d\	de
*	*	*	*	*	*	*custos:d	*
!LO:TX:t=P:problem=kreska pseudotaktowa	!	!	!	!	!	!	!
2G\	De-	2G/	De-	2B-\	de-	2d\	De-
!	!	!	!	!	!	!LO:LB:g=original	!
*	*	*	*	*	*	*xywh-#21:7834,3868,6011,858	*
2D,/	-o	2F#X/	-o	2A/	-o	2d\	-o
2D/	lu-	2A\	lu-	2F#X/	lu-	2d\	lu-
=30-	=30-	=30-	=30-	=30-	=30-	=30-	=30-
!LO:N:acc=#	!	!	!	!	!	!	!
4BBn,/	-men	4G/	-men	4G/	-men	4d\	-men
*	*	*	*	*custos:G	*	*	*
4BB/	de	4d\	de	4G/	de	4d\	de
!	!	!	!	!LO:LB:g=original	!	!	!
*	*	*	*	*xywh-#122:1736,2310,5809,886	*	*	*
4.C/	lu-	4.c\	lu-	4.G/	lu-	4.e-X\	lu-
!LO:TX:t=P:problem=kreska pseudotaktowa	!	!	!	!	!	!	!
8C/	-mi-	8c\	-mi-	8G/	-mi-	8e-\	-mi-
2GG,/	-ne	2B-\	-ne	2G/	-ne	2d\	-ne
2.G\	De-	2.G/	De-	2.B-\	De-	2.d\	De-
=31-	=31-	=31-	=31-	=31-	=31-	=31-	=31-
.	.	.	.	.	.	.	.
4Fny,\	-um	4A/	-um	4c\	-u(m)	4f\	-um
!LO:TX:t=P:problem=kreska pseudotaktowa	!	!	!	!	!	!	!
2B-y\	ve-	2B-\	ve-	2d\	ve-	2f\	ve-
2F,\	-rum	2A\	-ru(m)	2c\	-ru(m)	2f\	-rum
4F\	de	4A\	de	4c\	de	4f\	de
*custos:G	*	*	*	*	*	*	*
2F\	De-	2A\	De-	2c\	de-	2f\	De-
!LO:PG:g=original	!	!	!	!	!	!	!
=32-	=32-	=32-	=32-	=32-	=32-	=32-	=32-
*xywh-#324:1610,836,5757,903	*	*	*	*	*	*	*
.	.	.	.	.	.	.	.
4G,\	-o	4G/	-o	4B-\	-o	4d\	-o
4F\	ve-	2A\	ve-	4A\	ve-	2.f\	ve-
8E\L	.	.	.	8G/L	.	.	.
8D\J	.	.	.	8Fny/J	.	.	.
1C	.	2c\	-ro	1G	.	.	.
.	.	.	.	.	.	8eny\L	.
.	.	.	.	.	.	8d\J	.
.	.	2.c\	ge-	.	.	2e\	.
=33-	=33-	=33-	=33-	=33-	=33-	=33-	=33-
2FF,/	-ro	.	.	0A	-ro	1f	-ro
.	.	4c\	-ni-	.	.	.	.
2.F\	ge-	2c\	-tum	.	.	.	.
.	.	2.d\	non	.	.	2r	.
4F\	-ni-	.	.	.	.	.	.
2F,\	-tum	.	.	.	.	2.d\	Ge-
*	*	*custos:B-	*	*	*	*	*
.	.	4c\	.	.	.	.	.
!	!	!LO:LB:g=original	!	!	!	!	!
=34-	=34-	=34-	=34-	=34-	=34-	=34-	=34-
*	*	*xywh-#226:8016,1669,5873,762	*	*	*	*	*
2.G\	non	4B-\	.	2r	.	.	.
.	.	4A\	.	.	.	4d\	-ni-
.	.	2B-\	.	2.G/	ge-	2d\	-tum
4F\	.	.	.	.	.	.	.
4E\	.	2.c\	fa-	.	.	2.e\	non
4D\	.	.	.	4G/	-ni-	.	.
2E,\	.	.	.	2G/	-tu(m)	.	.
.	.	4B-\	.	.	.	4d\	.
=35-	=35-	=35-	=35-	=35-	=35-	=35-	=35-
2.F\	fa-	4A\	.	2.A/	non	4cny/	.
.	.	4G/	.	.	.	4B-y/	.
.	.	2A\	.	.	.	2c/	.
4E\	.	.	.	4G/	.	.	.
2.D/	.	1B-	.	4F/	.	4d\	fa-
.	.	.	.	4E/	.	4c/	.
.	.	.	.	2F/	.	4B-/	.
4C/	.	.	.	.	.	4c/	.
=36-	=36-	=36-	=36-	=36-	=36-	=36-	=36-
*lig	*	*	*	*	*	*	*
1BB-y	.	1B-	-ctum	4G/	fac-	4d\	.
.	.	.	.	4A/	.	4e\	.
.	.	.	.	1B-	.	2.f\	.
1F	.	2c\	non	.	.	.	.
.	.	.	.	.	.	8e\L	.
*	*	*	*	*	*	*custos:c	*
.	.	.	.	.	.	8d\J	.
!	!	!	!	!	!	!LO:PB:g=original	!
*	*	*	*	*	*	*xywh-#22:1540,649,5854,1002	*
.	.	2Fny/	fa-	2A\	.	2c/	.
*Xlig	*	*	*	*	*	*	*
=37-	=37-	=37-	=37-	=37-	=37-	=37-	=37-
2BB-,/	-ctum	2F/	-ctu(m)	2B-\	-tu(m)	2d\	-ctum
1B-	con-	1B-	con-	1d	con-	1f	con-
*	*	*	*	*custos:B-	*	*	*
2A\	ſub-	2c\	-ſub-	2c\	-ſub-	2f\	-ſub-
!	!	!	!	!LO:LB:g=original	!	!	!
=38-	=38-	=38-	=38-	=38-	=38-	=38-	=38-
*	*	*	*	*xywh-#122:1710,3074,5976,930	*	*	*
2.G\	-ſtan-	2d\	-ſtan-	2.B-\	-stan-	2g\	-ſtan-
.	.	2D/	-ti-	.	.	2d\	-ti-
4F\	-ci-	.	.	4A\	-ti-	.	.
2E-X\	-a-	4G/	-a-	2G/	-a-	2e-X\	-a-
.	.	4G/	-lem	.	.	.	.
*custos:C	*	*	*	*	*	*	*
2D/	-lem	1B-\	Pa-	2F/	-le(m)	2f\	-lem
!LO:LB:g=original	!	!	!	!	!	!	!
=39-	=39-	=39-	=39-	=39-	=39-	=39-	=39-
*xywh-#324:1619,1633,5775,876	*	*	*	*	*	*	*
1C	pa-	.	.	1c	pa-	1e-X	Pa-
.	.	2A/	.	.	.	.	.
1BB-,	-tri	1B-	-tri	1F	-tri	1d	-tri
=40-	=40-	=40-	=40-	=40-	=40-	=40-	=40-
1.F	per-	1.c	per-	1.A	Per-	1.f	per-
2F,\	-quem	2c\	-que(m)	2A/	-que(m)	2f\	-que(m)
=41-	=41-	=41-	=41-	=41-	=41-	=41-	=41-
2.C/	om-	2.c\	om-	2.G/	om-	2.eny\	om-
4C/	-ni-	4c\	-ni-	4G/	-ni-	4e\	-ni-
2C,/	-a	2G/	-a	2c\	-a	2e\	-a
2.C/	om-	2.c\	om-	2.G/	om-	2.e\	om-
=42-	=42-	=42-	=42-	=42-	=42-	=42-	=42-
.	.	.	.	.	.	.	.
4C/	-ni-	4c\	-ni-	4G/	-ni-	4e\	-ni-
2D,/	-a	2A\	-a	2F/	-a	2d\	-a
*	*	*custos:G	*	*	*	*	*
1.AA	fa-	4A\	fa-	2E/	fac-	2c#X/	fa-
!	!	!LO:LB:g=original	!	!	!	!	!
*	*	*xywh-#226:8038,2395,5858,814	*	*	*	*	*
.	.	8G/L	.	.	.	.	.
.	.	8F/J	.	.	.	.	.
.	.	1E/	.	1A\	.	1d\	.
=43-	=43-	=43-	=43-	=43-	=43-	=43-	=43-
.	.	.	.	.	.	.	.
2AA/	-cta	2E/	-cta	2A/	-ta	2c#X/	cta
2D,\	ſunt	1F#X	ſunt	2A/	sunt	0d	ſunt
2D\	qui	.	.	2F#X/	qui	.	.
=44-	=44-	=44-	=44-	=44-	=44-	=44-	=44-
2F#X\	pro-	1r	.	2A/	pro-	.	.
4F#,\	-pter	.	.	4A/	-pter	.	.
4F#,\	nos	.	.	4A/	nos	.	.
2.G\	ho-	1G	qui	2.B-\	ho-	2r	.
.	.	.	.	.	.	2d\	qui
4G\	-mi-	.	.	4B-\	-mi-	.	.
=45-	=45-	=45-	=45-	=45-	=45-	=45-	=45-
1D,	-nes	2A/	pro-	2d\	-nes	2f#X\	pro-
.	.	4A/	-pter	1d	et	4f#\	-pter
.	.	4A/	no	.	.	4f#\	nos
1G	et	2.B-\	h(o)-	.	.	2.g\	ho-
.	.	.	.	4B-\	pro-	.	.
*	*	*	*	*	*	*custos:c	*
.	.	4B-\	-(mi)-	4B-\	-pter	4g\	-mi-
!	!	!	!	!	!	!LO:LB:g=original	!
=46-	=46-	=46-	=46-	=46-	=46-	=46-	=46-
*	*	*	*	*	*	*xywh-#22:1575,1546,5731,870	*
*	*	*	*	*custos:A	*	*	*
4Eny\	pro-	2G/	-nes	2c\	nos-	1cny	-nes
!	!	!	!	!LO:LB:g=original	!	!	!
*	*	*	*	*xywh-#122:1666,3785,5967,956	*	*	*
4E\	-pter	.	.	.	.	.	.
2.Fny\	no-	2c\	et	2A\	-tra(m)	.	.
.	.	4A\	pro-	1d	sa-	2fny\	et
*custos:G	*	*	*	*	*	*	*
4F\	-stram	4A\	-pter	.	.	.	.
!LO:LB:g=original	!	!	!	!	!	!	!
*xywh-#324:1539,2395,5864,885	*	*	*	*	*	*	*
2G\	ſa-	2B-\	n(o)-	.	.	4d\	pro-
.	.	.	.	.	.	4d\	-pter
=47-	=47-	=47-	=47-	=47-	=47-	=47-	=47-
*lig	*	*	*	*	*	*	*
1C	-lu-	2c\	-(st)ram	2c\	-lu-	2e\	noſ-
.	.	1c	ſa-	2G/	.	2c/	-tra(m)
*col	*	*	*	*lig	*	*	*
2.D\	.	.	.	1d	.	1f	ſa-
.	.	1B-\	-lu-	.	.	.	.
*Xlig	*	*	*	*	*	*	*
4E\	.	.	.	.	.	.	.
*Xcol	*	*	*	*	*	*	*
=48-	=48-	=48-	=48-	=48-	=48-	=48-	=48-
1F	.	.	.	1c	.	1f	-lu-
.	.	2A/	.	.	.	.	.
*	*	*	*	*Xlig	*	*	*
2BB-,/	-tem	1B-	-tem	2B-\	-te(m)	1d	-tem
2B-\	de-	.	.	2d\	des-	.	.
=49-	=49-	=49-	=49-	=49-	=49-	=49-	=49-
1A	-scen-	1r	.	1c	-cen-	2r	.
.	.	.	.	.	.	2f\	de-
2G,\	-dit	2r	.	2B-\	-dit	1e-X	-ſcen-
2A\	de	2c\	de-	2c\	de	.	.
=50-	=50-	=50-	=50-	=50-	=50-	=50-	=50-
2B-\	coe-	1B-	-ſcen-	2d\	ce-	2d\	-dit
4A\	.	.	.	4c\	.	2eny\	de
4G\	.	.	.	4B-\	.	.	.
2F\	.	2A\	-dit	1c	.	2f\	coe-
2G\	.	2B-\	de	.	.	4e\	.
.	.	.	.	.	.	4d\	.
=51-	=51-	=51-	=51-	=51-	=51-	=51-	=51-
1A	.	2c\	coe-	1Fny	.	2c/	.
.	.	4B-\	.	.	.	1f	.
.	.	4A\	.	.	.	.	.
*lig	*	*	*	*	*	*	*
*	*	*custos:A	*	*	*	*	*
1G	.	4B-\	.	2G/	.	.	.
!	!	!LO:LB:g=original	!	!	!	!	!
*	*	*xywh-#226:8023,3158,5799,792	*	*	*	*	*
.	.	4A\	.	.	.	.	.
.	.	4G\	.	1c\	.	2e\	.
.	.	4Fny/	.	.	.	.	.
=52-	=52-	=52-	=52-	=52-	=52-	=52-	=52-
1GG	.	1G	.	.	.	1d	.
!	!	!	!	!LO:N:acc=#	!	!	!
.	.	.	.	2Bn\	.	.	.
*Xlig	*	*	*	*	*	*	*
1C	-lis	1G	-lis	1c	-lis	1e	-lis
!LO:TX:t=P:problem=podwójna kreska	!	!	!	!	!	!	!
=53	=53-	=53-	=53-	=53-	=53-	=53-	=53-
!LO:TX:t=agnus adum.	!	!	!	!	!	!	!
1F	Et	1F	Et	1A	et	1c	Et
2.BB-/	in-	2.F/	in-	2.B-y\	in-	2.d\	in-
4BB-/	-car-	4F/	-car-	4B-\	-car-	4d\	-car-
=54-	=54-	=54-	=54-	=54-	=54-	=54-	=54-
2D\	-na-	2B-\	-na-	2B-\	-na-	2f\	-na-
2F\	-tus	2c\	-tus	2A/	-tus	2f\	-tus
1.BB-	est	1.d	eſt	1.B-	est	1.f	eſt
=55-	=55-	=55-	=55-	=55-	=55-	=55-	=55-
.	.	.	.	.	.	.	.
*custos:E	*	*	*	*custos:G	*	*	*
2BB-/	de	2d\	de	2B-\	de	2f\	de
!LO:LB:g=original	!	!	!	!LO:LB:g=original	!	!	!
*xywh-#324:1477,3218,5846,868	*	*	*	*xywh-#122:7658,690,6485,1053	*	*	*
2.E-X\	ſpi-	2B-/	sp(i)-	2.G/	spi-	2.e-X\	spi-
.	.	2B-/	-(ri)-	.	.	.	.
4E-\	-ri-	.	.	4G/	-ri-	4e-\	-ri-
=56-	=56-	=56-	=56-	=56-	=56-	=56-	=56-
*	*	*	*	*	*	*custos:f	*
1BB-,	-tu	1d	-(t)u	1B-	-tu	1f	-tu
!	!	!	!	!	!	!LO:LB:g=original	!
*	*	*	*	*	*	*xywh-#22:1575,2302,5731,870	*
0F	ſan-	2c\	san-	2A/	sanc-	4f\	San-
.	.	.	.	.	.	4eny\	.
.	.	1B-\	.	2B-\	.	2d\	.
=57-	=57-	=57-	=57-	=57-	=57-	=57-	=57-
.	.	.	.	1c	.	1c	.
.	.	2A/	.	.	.	.	.
2BB-,/	-cto	2B-\	-cto	2B-\	-to	2d\	-cto
1FF/	ex	1c\	ex	1A\	ex	1f\	ex
=58-	=58-	=58-	=58-	=58-	=58-	=58-	=58-
.	.	.	.	.	.	.	.
2AA/	Ma-	2c\	Ma-	2A/	ma-	2f\	Ma-
1C	-ri-	2.c\	-ri-	1G	-ri-	1.e	-ri-
.	.	8B-\L	.	.	.	.	.
.	.	8A\J	.	.	.	.	.
=59-	=59-	=59-	=59-	=59-	=59-	=59-	=59-
1C,	-a	2G/	.	1c	-a	.	.
.	.	2G/	-a	.	.	2e\	-a
2.GG/	vir-	2.G/	vir-	2.B-\	Vir-	2.d\	vir-
4GG/	-gi-	4G/	-gi-	4B-\	-gi-	4d\	-gi-
=60-	=60-	=60-	=60-	=60-	=60-	=60-	=60-
1GG,	-ne	1G	-ne	1B-	-ne	1d	-ne
*	*	*custos:A	*	*	*	*	*
1D	et	1A	et	1d	et	1f	et
!	!	!LO:LB:g=orginal	!	!	!	!	!
=61-	=61-	=61-	=61-	=61-	=61-	=61-	=61-
*	*	*xywh-#226:7986,3854,5658,992	*	*	*	*	*
2BB-/	ho-	2A\	ho-	2d\	ho-	2f\	Ho-
2FF/	-mo	2A\	-mo	2.c\	-mo	2f\	-mo
1.C	fa-	2G/	fa-	.	.	2e\	fa-
.	.	.	.	4B-\	.	.	.
.	.	4A/	.	2A\	.	1f\	.
.	.	4B-\	.	.	.	.	.
=62-	=62-	=62-	=62-	=62-	=62-	=62-	=62-
.	.	2c\	.	2G/	fa-	.	.
2C/	-tus	2c\	-ctus	2G/	-ctus	2e\	-ctus
1FF;	est	1c	eſt	1A;	eſt	1f	eſt
!	!	!LO:PB:g=original	!	!	!	!	!
=63||-	=63||-	=63||-	=63||-	=63||-	=63||-	=63||-	=63||-
*M2/1	*	*M2/1	*	*M2/1	*	*M2/1	*
*met(C)	*	*met(C)	*	*met(C)	*	*met(C)	*
*xywh-#324:1406,3892,5970,1071	*	*xywh-#227:1639,801,5741,888	*	*xywh-#122:7798,1630,5923,903	*	*	*
1r	.	00r	.	2.F/	Cru-	0r	.
.	.	.	.	4F/	-ci-	.	.
2.C/	Cru-	.	.	1G	-fi-	.	.
4C/	-ci-	.	.	.	.	.	.
=64-	=64-	=64-	=64-	=64-	=64-	=64-	=64-
1D	-fi-	.	.	1F	-xus	0r	.
1C	-xus	.	.	2G/	e-	.	.
.	.	.	.	2A/	-ti-	.	.
=65-	=65-	=65-	=65-	=65-	=65-	=65-	=65-
2D/	e-	1r	.	1.B-	-am	0r	.
2Eny\	-ti-	.	.	.	.	.	.
1.F	-am	2.F/	Cru-	.	.	.	.
.	.	.	.	2A/	pro	.	.
.	.	4F/	-ci-	.	.	.	.
=66-	=66-	=66-	=66-	=66-	=66-	=66-	=66-
.	.	1G	-fi-	2.G/	no-	2.c/	Cru-
2E\	pro	.	.	.	.	.	.
.	.	.	.	8F/	.	4c/	-ci-
.	.	.	.	8G/	.	.	.
1D	no-	1F	-xus	2A\	.	1d	-fi-
.	.	.	.	1B-\	.	.	.
=67-	=67-	=67-	=67-	=67-	=67-	=67-	=67-
*	*	*	*	*	*	*custos:d	*
2E\	.	2G\	e-	.	.	1c	-xus
!	!	!	!	!	!	!LO:LB:g=original	!
*	*	*	*	*	*	*xywh-#22:1522,3049,5678,861	*
2F\	.	2A\	-ti-	4A\	.	.	.
.	.	.	.	4G\	.	.	.
2BB-/	.	1.B-	-am	1F	.	2d\	e-
4AA/	.	.	.	.	.	2e\	-ti-
4GG/	.	.	.	.	.	.	.
=68-	=68-	=68-	=68-	=68-	=68-	=68-	=68-
*lig	*	*	*	*	*	*	*
1FF	.	.	.	0c	-bis	1.f	-am
.	.	2A\	pro	.	.	.	.
1C	.	2G\	no-	.	.	.	.
.	.	1c\	.	.	.	2e\	pro
*	*	*lig	*	*	*	*	*
*Xlig	*	*	*	*	*	*	*
=69-	=69-	=69-	=69-	=69-	=69-	=69-	=69-
1GG	-bis	.	.	1r	.	1d	no-
.	.	1B-	.	.	.	.	.
1r	.	.	.	1F	sub	2c/	-bis
*	*	*Xlig	*	*	*	*	*
.	.	2A/	.	.	.	2f\	ſub
=70-	=70-	=70-	=70-	=70-	=70-	=70-	=70-
1C	Sub	2G/	-bis	2.G/	pon-	2f\	Pon-
.	.	2c\	ſub	.	.	2e\	-ti-
.	.	.	.	4G/	-ti-	.	.
2.D/	Pon-	2c\	Pon-	1F	-o	1.f	-o
.	.	2B-\	-ti-	.	.	.	.
4D/	-ti-	.	.	.	.	.	.
=71-	=71-	=71-	=71-	=71-	=71-	=71-	=71-
1C	-o	1.c	-o	2G/	pi-	.	.
.	.	.	.	2A/	.	2e\	Pi-
2D/	Pi-	.	.	2B-\	-la-	1d	-la-
*custos:F	*	*	*	*	*	*	*
2E\	.	2B-\	Pi-	4A\	.	.	.
*	*	*	*	*custos:A	*	*	*
!LO:LB:g=original	!	!	!	!	!	!	!
.	.	.	.	4G\	.	.	.
!	!	!	!	!LO:LB:g=original	!	!	!
=72-	=72-	=72-	=72-	=72-	=72-	=72-	=72-
*xywh-#324:7683,501,6245,1213	*	*	*	*xywh-#122:7755,2402,6467,877	*	*	*
2F\	-la-	2A\	-la-	2A/	.	00c	-to
4E\	.	2.G/	.	2B-\	.	.	.
4D/	.	.	.	.	.	.	.
2E\	.	.	.	2c\	.	.	.
.	.	4F/	.	.	.	.	.
2F\	.	1F/	.	4B-\	.	.	.
.	.	.	.	4A\	.	.	.
=73-	=73-	=73-	=73-	=73-	=73-	=73-	=73-
!LO:TX:t=P:problem=kreska pseudotaktowa	!	!	!	!	!	!	!
1C	-to	.	.	4G\	.	.	.
.	.	.	.	4F\	.	.	.
.	.	2E/	.	2G/	.	.	.
1r	.	1F	-to	1F	-to	.	.
=74-	=74-	=74-	=74-	=74-	=74-	=74-	=74-
0F	Paſ-	0A	paſ-	0c	paſ-	0.f	Paſ-
=75-	=75-	=75-	=75-	=75-	=75-	=75-	=75-
*	*	*custos:G	*	*	*	*	*
!LO:TX:t=P:problem=kreska pseudotaktowa	!	!	!	!	!	!	!
1D	-sus	1A	-sus	1d	-ſus	.	.
*	*	*xywh-#227:1647,1583,5741,817	*	*	*	*	*
1G	et	1G	et	1.B-	et	1d	-sus
=76-	=76-	=76-	=76-	=76-	=76-	=76-	=76-
1F	ſe-	1c	ſe-	.	.	1.f	et
.	.	.	.	2A/	se-	.	.
!	!	!	!	!LO:N:acc=#	!	!	!
1G	-pul-	1G	-pul-	2Bn\	-pul-	.	.
.	.	.	.	1c\	.	2e\	ſe-
=77-	=77-	=77-	=77-	=77-	=77-	=77-	=77-
1G	-tus	1G	-tus	.	.	2.d\	-pul-
!	!	!	!	!LO:N:acc=#	!	!	!
.	.	.	.	2Bn\	-tus	.	.
.	.	.	.	.	.	4d\	-tus
2C,/	eſt	2G/	eſt	0c	eſt	2.e\	eſt
2.C/	re-	2.E/	et	.	.	.	.
.	.	.	.	.	.	4f\	.
=78-	=78-	=78-	=78-	=78-	=78-	=78-	=78-
.	.	.	.	.	.	1g	.
4D/	-ſu-	4F/	re-	.	.	.	.
2E\	.	2G/	-ſur-	.	.	.	.
1F	-re-	1A	-re-	2r	.	2r	.
.	.	.	.	2.A\	et	2.c/	et
=79-	=79-	=79-	=79-	=79-	=79-	=79-	=79-
!LO:TX:t=P:problem=kreska pseudotaktowa	!	!	!	!	!	!	!
1C	-xit	1G	-xit	.	.	.	.
.	.	.	.	4B-y\	re-	4d\	re-
.	.	.	.	2c\	-sur-	2e\	-ſu-
2.BB-/	ter-	2B-\	ter-	1d	-re-	1f	-re-
.	.	2F/	-ti-	.	.	.	.
4C/	.	.	.	.	.	.	.
=80-	=80-	=80-	=80-	=80-	=80-	=80-	=80-
4D\	.	4F/	-a	2A/	-xit	2d\	-xit
4E\	.	4G/	.	.	.	.	.
*	*	*	*	*	*	*custos:c	*
2.F\	.	4A/	.	2c\	ter-	2c/	ter-
!	!	!	!	!	!	!LO:LB:g=original	!
*	*	*	*	*	*	*xywh-#22:1566,3858,5740,791	*
.	.	4F/	.	.	.	.	.
.	.	1G	di-	2C/	-ti-	2c/	-ti-
4F\	-ti-	.	.	.	.	.	.
!LO:TX:t=P:problem=kreska pseudotaktowa	!	!	!	!	!	!	!
2E\	-a	.	.	2G/	-a	1c\	-a
=81-	=81-	=81-	=81-	=81-	=81-	=81-	=81-
1D	di-	2F/	-e	2A/	di-	.	.
.	.	2F/	ſe-	4G/	.	2B-/	di-
*	*	*	*	*custos:G	*	*	*
.	.	.	.	4F/	.	.	.
!	!	!	!	!LO:LB:g=original	!	!	!
*	*	*	*	*xywh-#122:7798,3104,6090,956	*	*	*
2C/	-e	1c	-cun-	2G/	-e	2c/	-e
*custos:F	*	*	*	*	*	*	*
2C/	ſe-	.	.	2G/	se-	2e\	ſe-
!LO:LB:g=original	!	!	!	!	!	!	!
=82-	=82-	=82-	=82-	=82-	=82-	=82-	=82-
*xywh-#324:7728,1502,5917,1027	*	*	*	*	*	*	*
1F	-cun-	2c\	-dum	2A/	-cu(n)-	1f	-cun-
.	.	2A/	ſcrip-	1c	-du(m)	.	.
2F\	-dum	1d	-tu-	.	.	2f\	-dum
2G\	ſcri-	.	.	2B-\	scri-	2d\	ſcri-
=83-	=83-	=83-	=83-	=83-	=83-	=83-	=83-
0C	-tu-	1c	-ras	2.e-X\	-ptu-	2.g\	-ptu-
.	.	.	.	4d\	.	4f\	.
.	.	1r	.	2c\	.	1e-X	.
.	.	.	.	2B-\	.	.	.
=84-	=84-	=84-	=84-	=84-	=84-	=84-	=84-
2.D/	.	1F	et	4A\	.	1d	-ras
.	.	.	.	8G/L	.	.	.
.	.	.	.	8A/J	.	.	.
.	.	.	.	1B-	.	.	.
4E\	.	.	.	.	.	.	.
1F	.	2c\	aſ-	.	.	1c	et
.	.	2.c\	-cen-	4A\	.	.	.
.	.	.	.	4G\	.	.	.
=85-	=85-	=85-	=85-	=85-	=85-	=85-	=85-
!LO:TX:t=P:problem=kreska pseudotaktowa	!	!	!	!	!	!	!
1FF	-ras	.	.	1A	-ras	2f\	a-
.	.	4c\	-dit	.	.	.	.
*	*	*custos:c	*	*	*	*	*
.	.	2d\	in	.	.	2.f\	-ſcen-
*	*	*xywh-#227:1674,2365,5741,817	*	*	*	*	*
1r	.	2c\	coe-	1r	.	.	.
.	.	.	.	.	.	4f\	-dit
.	.	2B-\	.	.	.	2g\	in
=86-	=86-	=86-	=86-	=86-	=86-	=86-	=86-
!LO:TX:t=P:problem=kreska pseudotaktowa	!	!	!	!	!	!	!
0r	.	4A\	.	1r	.	2f\	coe-
.	.	4B-\	.	.	.	.	.
.	.	1c	.	.	.	2eny\	.
.	.	.	.	1F	et	4d\	.
.	.	.	.	.	.	4e\	.
.	.	2B-\	.	.	.	1f\	.
=87-	=87-	=87-	=87-	=87-	=87-	=87-	=87-
1C	et	2A/	.	2c\	aſ-	.	.
.	.	2G/	.	2.c\	-cen-	2e\	.
2F\	a-	2.A/	.	.	.	2f\	-lum
.	.	.	.	4c\	-dit	.	.
2.F\	-ſcen-	.	.	2d\	in	2F/	in
.	.	4G/	.	.	.	.	.
=88-	=88-	=88-	=88-	=88-	=88-	=88-	=88-
.	.	2F/	.	2c\	coe-	2A/	coe-
4F\	-dit	.	.	.	.	.	.
2G\	in	2B-\	.	2B-\	.	2B-/	.
2.F\	coe-	4F/	.	2A/	.	1c	.
.	.	4G/	.	.	.	.	.
.	.	2A/	.	2G/	.	.	.
4E\	.	.	.	.	.	.	.
=89-	=89-	=89-	=89-	=89-	=89-	=89-	=89-
*	*	*	*	*lig	*	*	*
4D/	.	2B-\	.	1F	.	2d\	.
4E\	.	.	.	.	.	.	.
1F	.	2A/	.	.	.	4c/	.
.	.	.	.	.	.	4B-/	.
.	.	2G/	-lum	1G	.	2c/	.
*	*	*	*	*	*	*custos:A	*
2E\	.	1c\	ſe-	.	.	2G/	.
*	*	*	*	*Xlig	*	*	*
!	!	!	!	!	!	!LO:LB:g=original	!
=90-	=90-	=90-	=90-	=90-	=90-	=90-	=90-
*	*	*	*	*	*	*xywh-#22:7799,556,6259,1142	*
*	*	*	*	*custos:G	*	*	*
!LO:TX:t=P:problem=kreska pseudotaktowa	!	!	!	!	!	!	!
1F	-lum	.	.	1F	-lu(m)	1A	-lum
!	!	!	!	!LO:LB:g=original	!	!	!
*	*	*	*	*xywh-#122:7825,3920,6309,1246	*	*	*
.	.	2A/	-det	.	.	.	.
2r	.	2d\	ad	1G	se-	2r	.
1C/	ſe-	2.c\	dex-	.	.	1e\	ſe-
=91-	=91-	=91-	=91-	=91-	=91-	=91-	=91-
.	.	.	.	2E/	-det	.	.
.	.	4c\	-te-	.	.	.	.
!LO:TX:t=P:problem=kreska pseudotaktowa	!	!	!	!	!	!	!
2AA/	-det	1c,	-ram	2.A/	ad	2c/	-det
1D	ad	.	.	.	.	1f	ad
.	.	.	.	4G/	.	.	.
.	.	2B-\	pa-	2F/	.	.	.
=92-	=92-	=92-	=92-	=92-	=92-	=92-	=92-
2C/	dex-	2.c\	.	2.G/	dex-	2.e\	dex-
2E\	-te-	.	.	.	.	.	.
.	.	4B-\	.	4G/	-te-	4d\	-te-
1F	-ra(m)	4A\	.	2A/	-ra(m)	2c/	-ram
.	.	4G/	.	.	.	.	.
.	.	2A\	.	1c\	pa-	4f\	pa-
.	.	.	.	.	.	4e\	.
=93-	=93-	=93-	=93-	=93-	=93-	=93-	=93-
1G	pa-	0G	-tris	.	.	4d\	.
.	.	.	.	.	.	4c/	.
!	!	!	!	!LO:N:acc=#	!	!	!
.	.	.	.	2Bn\	.	2d\	.
2C,/	-tris	.	.	2c\	-tris	2e\	-tris
*custos:F	*	*	*	*	*	*	*
2C/	et	.	.	2G/	et	2e\	et
!LO:LB:g=original	!	!	!	!	!	!	!
=94-	=94-	=94-	=94-	=94-	=94-	=94-	=94-
*xywh-#324:7763,2272,5952,992	*	*	*	*	*	*	*
*	*	*custos:F	*	*	*	*	*
2.F\	i-	2r	.	2.A/	i-	2.c/	i-
*	*	*xywh-#227:1621,3139,5750,790	*	*	*	*	*
.	.	2F/	et	.	.	.	.
4F\	-te-	.	.	4A/	-te-	4c/	-te-
2F\	-rum	2.c\	i-	1A	-ru(m)	2c/	-rum
2E\	ven-	.	.	.	.	2c/	ven-
.	.	4c\	-te-	.	.	.	.
=95-	=95-	=95-	=95-	=95-	=95-	=95-	=95-
2D/	-tu-	2B-\	-rum	0r	.	2d\	-tu-
2C/	-rus	1A	ven-	.	.	2e\	-rus
1D	eſt	.	.	.	.	4f\	eſt
.	.	.	.	.	.	4g\	.
.	.	1F/	-tu-	.	.	4a\	.
.	.	.	.	.	.	4f\	.
=96-	=96-	=96-	=96-	=96-	=96-	=96-	=96-
!LO:TX:t=P:problem=kreska pseudotaktowa	!	!	!	!	!	!	!
1r	.	.	.	1c	Cum	1g	.
.	.	2E/	-rus	.	.	.	.
1F	cum	1F	e(st)	2F/	glo-	1r	.
.	.	.	.	4F/	-ri-	.	.
.	.	.	.	4F/	-a	.	.
=97-	=97-	=97-	=97-	=97-	=97-	=97-	=97-
2C/	glo-	1c	cum	2G/	Ju-	1r	.
4C/	-ri-	.	.	2A/	-di-	.	.
!LO:TX:t=P:problem=kreska pseudotaktowa	!	!	!	!	!	!	!
4C/	-a	.	.	.	.	.	.
1D	iu-	2F/	glo-	1.B-y	-ca-	1f	cum
.	.	4F/	-ri-	.	.	.	.
.	.	4F/	-a	.	.	.	.
=98-	=98-	=98-	=98-	=98-	=98-	=98-	=98-
2E\	-di-	2G/	iu-	.	.	2c/	glo-
1F	-ca-	2A/	-di-	2A/	-re	4c/	-ri-
.	.	.	.	.	.	4c/	-a
.	.	1.B-	-ca-	1G	vi-	2d\	iu-
2E\	-re	.	.	.	.	2e\	-di-
=99-	=99-	=99-	=99-	=99-	=99-	=99-	=99-
1D	vi-	.	.	1F	-vos	1.f	-ca-
.	.	2A/	-re	.	.	.	.
2BB-/	-vos	1G	vi-	1B-	et	.	.
*	*	*	*	*	*	*custos:d	*
2C/	et	.	.	.	.	2e\	-re
!	!	!	!	!	!	!LO:LB:g=original	!
=100-	=100-	=100-	=100-	=100-	=100-	=100-	=100-
*	*	*	*	*	*	*xywh-#22:7826,1629,5705,817	*
2.D/	mor-	1.F	-vos	4A\	mor-	1d	vi-
.	.	.	.	8G\L	.	.	.
*	*	*	*	*custos:B-	*	*	*
.	.	.	.	8A\J	.	.	.
!	!	!	!	!LO:PB:g=original	!	!	!
*	*	*	*	*xywh-#123:1606,772,6002,1053	*	*	*
.	.	.	.	2B-\	.	.	.
!LO:TX:t=P:problem=kreska pseudotaktowa	!	!	!	!	!	!	!
4E\	.	.	.	.	.	.	.
1F	.	.	.	2A\	.	2c/	-vos
.	.	2F/	et	1B-\	.	2B-/	et
=101-	=101-	=101-	=101-	=101-	=101-	=101-	=101-
1FF	-tu-	2.F/	mor-	.	.	2.c/	mor-
.	.	.	.	2A/	-tu-	.	.
.	.	4F/	-tu-	.	.	4c/	-tu-
1.BB-	-os	1.F	-os	1B-	-os	1d	-os
=102-	=102-	=102-	=102-	=102-	=102-	=102-	=102-
.	.	.	.	2.c\	Cu-	1r	.
!LO:TX:t=P:problem=kreska pseudotaktowa	!	!	!	!	!	!	!
2AA/	et	2c\	et	.	.	.	.
.	.	.	.	4c\	-ius	.	.
1D	mor-	2c\	mor-	1F	Re-	2.f\	cu-
.	.	2B-\	-tu-	.	.	.	.
.	.	.	.	.	.	4f\	-ius
=103-	=103-	=103-	=103-	=103-	=103-	=103-	=103-
*	*	*custos:c	*	*	*	*	*
2C/	.	1c	-os	2G/	-gni	1c	re-
4BB-/	.	.	.	2A/	no(n)	.	.
4AA/	.	.	.	.	.	.	.
*	*	*xywh-#227:1692,3876,5607,1013	*	*	*	*	*
*lig	*	*	*	*	*	*	*
1GG	.	00r	.	1.B-	e-	2d\	-gni
.	.	.	.	.	.	2e\	non
=104-	=104-	=104-	=104-	=104-	=104-	=104-	=104-
*custos:GG	*	*	*	*	*	*	*
1FF	.	.	.	.	.	1.f	e-
!LO:LB:g=original	!	!	!	!	!	!	!
*xywh-#324:7816,3025,5758,992	*	*	*	*	*	*	*
.	.	.	.	2A\	-rit	.	.
*Xlig	*	*	*	*	*	*	*
2.GG/	-tu-	.	.	1G	fi-	.	.
.	.	.	.	.	.	2e\	-rit
4GG/	-os	.	.	.	.	.	.
=105-	=105-	=105-	=105-	=105-	=105-	=105-	=105-
!LO:TX:t=P:problem=kreska pseudotaktowa	!	!	!	!	!	!	!
*	*	*	*	*	*	*lig	*
1FF	.	.	.	2A/	.	1d	fi-
.	.	.	.	1B-	.	.	.
!LO:TX:t=P:problem=kreska pseudotaktowa	!	!	!	!	!	!	!
1r	.	2.c\	cu-	.	.	1.c	.
.	.	.	.	4A\	.	.	.
.	.	4c\	-ius	4G\	.	.	.
*	*	*	*	*	*	*Xlig	*
=106-	=106-	=106-	=106-	=106-	=106-	=106-	=106-
2.F\	cu-	1F	re-	1A	-nis	.	.
.	.	.	.	.	.	1f	.
4F\	-ius	.	.	.	.	.	.
1C	re-	2G/	-gni	2.c\	Cu-	.	.
.	.	2A\	non	.	.	2e\	-nis
.	.	.	.	4c\	-ius	.	.
=107-	=107-	=107-	=107-	=107-	=107-	=107-	=107-
2D/	-gni	2B-\	e-	1F	Re-	2.f\	cu-
2D/	non	2A,\	-rit	.	.	.	.
.	.	.	.	.	.	4f\	-ius
2E\	e-	2.c\	/cu-	2G/	-gni	1c	re-
2F\	-rit	.	.	2A/	no(n)	.	.
.	.	4c,\	-ius	.	.	.	.
=108-	=108-	=108-	=108-	=108-	=108-	=108-	=108-
1D	fi-	1F	re-	4B-\	e-	2d\	-gni
.	.	.	.	8A\L	.	.	.
.	.	.	.	8G\J	.	.	.
.	.	.	.	4A\	.	2d\	no(n)
.	.	.	.	4F/	.	.	.
2C/	.	2G,/	-gni	2c\	.	2e\	e-
4BB-/	.	2A,\	non	2c\	-rit	2f\	-rit
4AA/	.	.	.	.	.	.	.
=109-	=109-	=109-	=109-	=109-	=109-	=109-	=109-
2GG/	.	2.B-\	e-	2.d\	fi-	2g\	fi-
2FF/	.	.	.	.	.	2c/	.
.	.	4A\	.	4c\	.	.	.
*lig	*	*	*	*	*	*lig	*
1BB-	.	2G/	-rit/	2.B-\	.	1d	.
.	.	1F/	.	.	.	.	.
.	.	.	.	4A\	.	.	.
=110-	=110-	=110-	=110-	=110-	=110-	=110-	=110-
1C	.	.	.	1G	.	1c	.
.	.	2E/	fi-	.	.	.	.
*Xlig	*	*	*	*	*	*Xlig	*
1FF	-nis	1F	-nis	1A;	-nis	1c	-nis
!LO:LB:g=original	!	!	!LO:LB:g=original	!	!	!	!
=111||-	=111||-	=111||-	=111||-	=111||-	=111||-	=111||-	=111||-
*M3/1	*	*M3/1	*	*M3/1	*	*M3/1	*
!	!	!	!	!LO:SIC:v:o=met(C3)	!	!	!
*met(O)	*	*met(O)	*	*met(O)	*	*met(O)	*
*xywh-#324:7834,3858,5988,1160	*	*xywh-#227:7885,547,6150,1164	*	*xywh-#123:1685,1632,5836,921	*	*xywh-#22:7799,2394,5881,826	*
0F	Et	0c	Et	0A	Et	0f	Et
!LO:TX:t=P:problem=kreska pseudotaktowa	!	!	!	!	!	!	!
1F	in	1c	in	1A	in	1f	in
=112-	=112-	=112-	=112-	=112-	=112-	=112-	=112-
1.G	spi-	1.B-	ſpi-	1.G	ſpi-	1.d	spi-
2G\	-ri-	2B-\	-ri-	2G/	-ri-	2d\	-ri-
!LO:TX:t=P:problem=kreska pseudotaktowa	!	!	!	!	!	!	!
1F	-tum	1c	-tum	1A	-tu(m)	1f	-tum
=113-	=113-	=113-	=113-	=113-	=113-	=113-	=113-
!	!	!	!	!LO:SIC:v:o=wykreślone	!	!	!
0G	San-	0B-	ſan-	0G	san-	0e-	San-
!LO:TX:t=P:problem=kreska pseudotaktowa	!	!	!	!	!	!	!
1A	-ctu(m)	1c	-ctum	1c	-ctu(m)	1e-	-ctu(m)
=114-	=114-	=114-	=114-	=114-	=114-	=114-	=114-
1.B-	Do-	1d	D(o)-	1B-	do-	1.d	Do-
.	.	1B-	-(mi)-	1d	-mi-	.	.
2B-\	-mi-	.	.	.	.	2d\	-mi-
!LO:TX:t=P:problem=kreska pseudotaktowa	!	!	!	!	!	!	!
1B-	-num	1B-,	-num	1d	-nu(m)	1d	-num
=115-	=115-	=115-	=115-	=115-	=115-	=115-	=115-
1.G	et	1.B-	et	1.G	et	1d	et
.	.	.	.	.	.	1d	vi-
2F\	vi-	2A/	vi-	2A/	vi-	.	.
!LO:TX:t=P:problem=kreska pseudotaktowa	!	!	!	!	!	!	!
1E-X	-vi-	1B-	-vi-	2G/	-vi-	1e-X	-vi-
.	.	.	.	2A/	-fi-	.	.
=116-	=116-	=116-	=116-	=116-	=116-	=116-	=116-
*col	*	*col	*	*	*	*col	*
1D	-fi-	1B-	-fi-	0B-	-ca(n)-	1f	-fi-
!LO:TX:t=P:problem=kreska pseudotaktowa	!	!	!	!	!	!	!
0C	-can-	0c	-can-	.	.	0e-	-can-
.	.	.	.	1A	.	.	.
*Xcol	*	*Xcol	*	*	*	*Xcol	*
=117-	=117-	=117-	=117-	=117-	=117-	=117-	=117-
1BB-	-tem	1F	-tem	1B-	-tem	1d	-tem
1BB-	qui	1F	q(ui)	1B-	qui	1d	qui
!LO:TX:t=P:problem=kreska pseudotaktowa	!	!	!	!	!	!	!
1D	ex	1B-	ex	1B-	ex	1f	ex
=118-	=118-	=118-	=118-	=118-	=118-	=118-	=118-
!LO:TX:t=P:problem=kreska pseudotaktowa	!	!	!	!	!	!	!
0.F	Pa-	0.c	pa-	0.G	pa-	0.f	Pa-
=119-	=119-	=119-	=119-	=119-	=119-	=119-	=119-
1F	-tre	1c	-tre	1A	-tre	1f	-tre
1G	Fi-	1B-	fi-	1B-	fi-	1d	fi-
*custos:E	*	*	*	*custos:c	*	*	*
1D	-li-	1B-	-li-	1d\	-li-	1f	-li-
!LO:PB:g=original	!	!	!LO:LB:g=original	!LO:LB:g=original	!	!	!
=120-	=120-	=120-	=120-	=120-	=120-	=120-	=120-
*xywh-#325:1597,590,5889,1148	*	*	*	*xywh-#123:1711,2352,5783,982	*	*	*
!LO:N:vis=0	!	!LO:N:vis=0	!	!LO:N:vis=0	!	!LO:N:vis=0	!
0.E-X	-o-	0.G	-o-	0.c	-o-	0.g	-o-
=121-	=121-	=121-	=121-	=121-	=121-	=121-	=121-
0D	-q(ue)	0A	-q(ue)	0d	-que	0f	-q(ue)
*	*	*	*	*	*	*custos:f	*
1B-	pro-	1d	pro-	1B-	pro-	1f	pro-
!	!	!	!	!	!	!LO:LB:g=original	!
=122-	=122-	=122-	=122-	=122-	=122-	=122-	=122-
*	*	*	*	*	*	*xywh-#22:7905,3035,5766,940	*
*	*	*custos:c	*	*	*	*	*
!LO:N:vis=0	!	!LO:N:vis=0	!	!LO:N:vis=0	!	!LO:N:vis=0	!
0.G	-ce-	0.B-	-ce-	0.B-	-ce-	0f	-ce-
.	.	.	.	.	.	1eny	.
=123-	=123-	=123-	=123-	=123-	=123-	=123-	=123-
!LO:N:vis=0	!	!LO:N:vis=0	!	!LO:N:vis=0	!	!LO:N:vis=0	!
*	*	*xywh-#227:7982,1498,5812,942	*	*	*	*	*
0.F	-dit	0.c	-dit	0.A	-dit	0.f	-dit
=124-	=124-	=124-	=124-	=124-	=124-	=124-	=124-
0FF	qui	0c	q(ui)	0A	qui	0f	qui
!LO:TX:t=P:problem=kreska pseudotaktowa	!	!	!	!	!	!	!
1C	cum	1c	cum	1G	cu(m)	1e	cum
=125-	=125-	=125-	=125-	=125-	=125-	=125-	=125-
1FF	Pa-	1c	Pa-	1A	pa-	1f	p(at)-
1FF	-tre	1c	-tre	1A	-tre	1f	-re
1AA	et	1F	et	1c	et	1c	et
=126-	=126-	=126-	=126-	=126-	=126-	=126-	=126-
0C	Fi-	0G	fi-	0c	fi-	0e	fi-
!LO:TX:t=P:problem=kreska pseudotaktowa	!	!	!	!	!	!	!
1C	-li-	1G	-li-	1c	-li-	1e	-li-
=127-	=127-	=127-	=127-	=127-	=127-	=127-	=127-
!LO:N:vis=0	!	!LO:N:vis=0	!	!LO:N:vis=0	!	!LO:N:vis=0	!
0.G	-o	0.G	-o	0.B-	-o	0.d	-o
=128-	=128-	=128-	=128-	=128-	=128-	=128-	=128-
0G	ſi-	0B-	ſi-	0d	ſi-	0g	ſi-
1D	-mul	1A	-mul	1d	-mul	1f	-mul
=129-	=129-	=129-	=129-	=129-	=129-	=129-	=129-
0A	ſi-	0A	ſi-	0c#X	ſi-	0e	ſi-
!LO:TX:t=P:problem=kreska pseudotaktowa	!	!	!	!	!	!	!
1D	-mul	1A	-mul	1d	-mul	1f#	-mul
=130-	=130-	=130-	=130-	=130-	=130-	=130-	=130-
1.D	ſi-	1.A	ſi-	1.d	ſi-	1.f#	ſi-
2D/	-mul	2A/	-mul	2d\	-mul	2f#\	-mul
1D	a-	1A	a-	1d	a-	1f#	a-
=131-	=131-	=131-	=131-	=131-	=131-	=131-	=131-
*col	*	*	*	*col	*	*	*
1GG	-do-	1d	-do-	1B-	-do-	1g	-do-
*	*	*lig	*	*	*	*lig	*
0D	-ra-	1d	-ra-	0A	-ra-	1g	-ra-
.	.	1G	.	.	.	1f#X	.
*Xcol	*	*Xlig	*	*Xcol	*	*Xlig	*
=132-	=132-	=132-	=132-	=132-	=132-	=132-	=132-
*	*	*	*	*custos:c	*	*	*
!LO:TX:t=P:problem=kreska pseudotaktowa	!	!	!	!	!	!	!
!	!	!	!	!LO:N:acc=#	!	!	!
0.GG	-tur	0.G	-tur	0.Bn	-tur	0.g	-tur
!	!	!	!	!LO:LB:g=original	!	!	!
=133-	=133-	=133-	=133-	=133-	=133-	=133-	=133-
*	*	*	*	*xywh-#123:1711,3133,5844,1026	*	*	*
1C	et	1G	et	1cny	et	1e	et
1C	con-	1G	con-	1c	co(n)-	1e	con-
*custos:C	*	*	*	*	*	*	*
1C	-glo-	1G	-glo-	1c	-glo-	1e	-glo-
!LO:LB:g=original	!	!	!	!	!	!	!
=134-	=134-	=134-	=134-	=134-	=134-	=134-	=134-
*xywh-#325:1660,1547,5835,914	*	*	*	*	*	*	*
0C	-ri-	0G	-ri-	0c	-ri-	0e	-ri-
1F	-fi-	1F	-fi-	1A	-fi-	1c	-fi-
=135-	=135-	=135-	=135-	=135-	=135-	=135-	=135-
!LO:TX:t=P:problem=kreska pseudotaktowa	!	!	!	!	!	!	!
0.C	-ca-	0.G	-ca-	0.c	-ca-	0.e	-ca-
=136-	=136-	=136-	=136-	=136-	=136-	=136-	=136-
1FF	-tur	1A	-tur	1A	-tur	1c	-tur
1F	qui	1c	qui	1A	qui	1fny	qui
*	*	*custos:B-	*	*	*	*custos:f	*
!LO:TX:t=P:problem=kreska pseudotaktowa	!	!	!	!	!	!	!
1A	lo-	1c	lo-	1c	lo-	1f	lo-
!	!	!LO:LB:g=original	!	!	!	!LO:LB:g=original	!
=137-	=137-	=137-	=137-	=137-	=137-	=137-	=137-
*	*	*xywh-#227:7964,2342,5927,817	*	*	*	*xywh-#22:7896,3870,5960,975	*
0B-	-cu-	0B-	-cu-	0d	-cu-	0f	-cu-
1G	-tus	1B-	-tus	1B-y	-t(us)	1e	-tus
=138-	=138-	=138-	=138-	=138-	=138-	=138-	=138-
0F	eſt	0A	e(st)	0c	eſt	0f	eſt
!LO:TX:t=P:problem=kreska pseudotaktowa	!	!	!	!	!	!	!
1F	lo-	1A	lo-	1c	lo-	1f	lo-
=139-	=139-	=139-	=139-	=139-	=139-	=139-	=139-
0F	-cu-	0A	-cu-	0c	-cu-	0f	-cu-
1F	-tus	1A	-tus	1c	-tus	1f	-tus
=140-	=140-	=140-	=140-	=140-	=140-	=140-	=140-
!LO:N:vis=0	!	!LO:N:vis=0	!	!LO:N:vis=0	!	!LO:N:vis=0	!
!	!	!	!	!LO:N:acc=#	!	!	!
0.G	eſt	0.G	e(st)	0.Bn	eſt	0.d	eſt
=141-	=141-	=141-	=141-	=141-	=141-	=141-	=141-
0C	per	0G	p(er)	0c	per	0e	per
1D	pro-	1F	Pro-	1B-y	pro-	1d	Pro-
=142-	=142-	=142-	=142-	=142-	=142-	=142-	=142-
0.F	-phe-	0.F	-phe-	0B-	-phe-	0.c	-phe-
.	.	.	.	1A	.	.	.
=143-	=143-	=143-	=143-	=143-	=143-	=143-	=143-
!LO:TX:t=P:problem=kreska pseudotaktowa	!	!	!	!	!	!	!
0.BB-	-tas	0.F	-tas	0.B-	-tas	0.d	-tas
=144-	=144-	=144-	=144-	=144-	=144-	=144-	=144-
1F	et	1A	et	1c	et	1f	et
1F	u-	1c	u-	1A	u-	1f	u-
1F	-nam	1A	-nam	1c	-na(m)	1f	-nam
=145-	=145-	=145-	=145-	=145-	=145-	=145-	=145-
0C	San-	0G	ſan-	0c	san-	0e-X	San-
*	*	*	*	*custos:d	*	*	*
1C	-cta(m)	1G,	-ctam	1c	-cta(m)	1e-	-cta(m)
!	!	!	!	!LO:LB:g=original	!	!	!
=146-	=146-	=146-	=146-	=146-	=146-	=146-	=146-
*	*	*	*	*xywh-#123:1694,3975,5888,1175	*	*	*
1G	/et	1B-,	/et	1d	/et	1g	/et
1G	u	1d	u-	1B-	u-	1g	u-
1G	nam	1B-,	-nam	1d	-nam	1g	-nam
=147-	=147-	=147-	=147-	=147-	=147-	=147-	=147-
0D	San-	0A	San-	0d	San-	0f#X	San-
1D	-ctam/	1A,	-ctam/	1d	-ctam/	1f#	-ctam/
=148-	=148-	=148-	=148-	=148-	=148-	=148-	=148-
*custos:D	*	*	*	*	*	*	*
!	!	!LO:TX:a:t=1	!	!	!	!	!
*	*	*	*	*	*	*col	*
0.GG	Ca-	0.d	Ca-	1.B-	ca-	1g	Ca-
!LO:LB:g=original	!	!	!	!	!	!	!
*xywh-#325:1639,2323,5889,892	*	*	*	*	*	*	*
.	.	.	.	.	.	0G	-tho-
.	.	.	.	2A/	.	.	.
.	.	.	.	1G	.	.	.
*	*	*	*	*	*	*Xcol	*
=149-	=149-	=149-	=149-	=149-	=149-	=149-	=149-
0D	-tho-	0d	-tho-	0G	-tho-	0A	.
!	!	!	!	!LO:TX:t=P:problem=niewyraźny krzyżyk	!	!	!
1D	-li-	1d	-li-	1F#	-li-	1A	-li-
=150-	=150-	=150-	=150-	=150-	=150-	=150-	=150-
*	*	*	*	*	*	*custos:c	*
!LO:TX:t=P:problem=kreska pseudotaktowa	!	!	!	!	!	!	!
!	!	!	!	!	!	!LO:N:acc=#	!
0.GG	-cam	0.d	-cam	0.G	-ca(m)	0.Bn	-cam
!	!	!	!	!	!	!LO:PB:g=original	!
=151-	=151-	=151-	=151-	=151-	=151-	=151-	=151-
*	*	*	*	*	*	*xywh-#23:1503,682,5662,1040	*
1C	et	1c	et	1G	et	1c	et
1C	a-	1c	a-	1G	a-	1c	A-
1C	-po-	1c	-po-	1G	-po-	1c	-po-
=152-	=152-	=152-	=152-	=152-	=152-	=152-	=152-
1.FF	-ſto-	1.c	-ſto-	1.Fny	-ſto-	1.A	-ſto-
2FF/	-li-	2c\	-li-	2F/	-li-	2A/	-li-
*	*	*custos:c	*	*	*	*	*
!LO:TX:t=P:problem=kreska pseudotaktowa	!	!	!	!	!	!	!
1FF	-cam	1c	-cam	1F	-ca(m)	1A	-cam
=153-	=153-	=153-	=153-	=153-	=153-	=153-	=153-
!LO:N:vis=0	!	!LO:N:vis=0	!	!LO:N:vis=0	!	!LO:N:vis=0	!
*	*	*xywh-#227:7973,3098,5910,826	*	*	*	*	*
0.C	Ec-	0.c	Ec-	0.G	ec-	0.c	Ec-
=154-	=154-	=154-	=154-	=154-	=154-	=154-	=154-
0GG	-cle-	0c	-cle-	0G	-cle-	0d	-cle-
!	!	!LO:N:acc=#	!	!	!	!	!
1GG	-ſi-	1Bn	-ſi-	1G	-si-	1d	-ſi-
=155-	=155-	=155-	=155-	=155-	=155-	=155-	=155-
!LO:N:vis=0	!	!LO:N:vis=0	!	!LO:N:vis=0	!	!LO:N:vis=0	!
0.C	-am	0.c	-am	0.G	-am	0.eny	-am
=156-	=156-	=156-	=156-	=156-	=156-	=156-	=156-
*M2/1	*	*M2/1	*	*M2/1	*	*M2/1	*
*met(c)	*	*met(c)	*	*met(c)	*	*met(c)	*
1r	.	1r	.	1F	Con-	2r	.
!	!	!	!	!	!	!LO:TX:t=P:problem=kreska pseudotaktowa	!
.	.	.	.	.	.	2fny\	Con-
1C	Con-	2r	.	2.G/	-fi-	2f\	-fi-
.	.	2c\	Con-	.	.	2e\	-te-
*	*	*	*	*custos:F	*	*	*
.	.	.	.	4G/	-te-	.	.
!	!	!	!	!LO:LB:g=original	!	!	!
=157-	=157-	=157-	=157-	=157-	=157-	=157-	=157-
*	*	*	*	*xywh-#123:7770,696,6371,1026	*	*	*
2.D/	-fi-	2c\	-fi-	2F/	-or	2f\	-or
.	.	2B-y\	-te-	2F/	u-	2.f\	u-
4D/	-te-	.	.	.	.	.	.
2C/	-or	2c\	-or	2G/	-nu(m)	.	.
.	.	.	.	.	.	4f\	-num
!LO:TX:t=P:problem=kreska pseudotaktowa	!	!	!	!	!	!	!
2C/	u-	2.c\	u-	2A/	bap-	2e\	Bap-
=158-	=158-	=158-	=158-	=158-	=158-	=158-	=158-
2D/	-num	.	.	2B-\	-tis-	1d	-ti-
.	.	4c\	-num	.	.	.	.
2Eny\	bap-	2B-\	Bap-	4A\	.	.	.
.	.	.	.	4G\	.	.	.
2.F\	-ti-	4A\	-tiſ-	4A\	.	4c/	.
.	.	4G\	.	4B-\	.	4B-y/	.
.	.	4F/	.	1c\	.	4A/	.
4E\	.	4G/	.	.	.	4G/	.
=159-	=159-	=159-	=159-	=159-	=159-	=159-	=159-
4D/	.	2A\	.	.	.	2F/	.
4C/	.	.	.	.	.	.	.
2D/	.	2D/	.	2B-\	.	1f	.
1C	.	1G	.	1c	.	.	.
.	.	.	.	.	.	2e\	-ſma
=160-	=160-	=160-	=160-	=160-	=160-	=160-	=160-
*custos:C	*	*	*	*	*	*	*
0.FF	-ſma	0F	-ma	1A	-ma	0f	.
!LO:LB:g=original	!	!	!	!	!	!	!
*xywh-#325:1586,3089,5835,946	*	*	*	*	*	*	*
.	.	.	.	1F	in	.	.
=161-	=161-	=161-	=161-	=161-	=161-	=161-	=161-
.	.	1C	in	2c\	re-	0r	.
.	.	.	.	1c	-mi-	.	.
00r	.	2F/	re-	.	.	.	.
.	.	1F/	-miſ-	2d\	-ssi-	.	.
=162-	=162-	=162-	=162-	=162-	=162-	=162-	=162-
!	!	!	!	!	!	!LO:TX:t=P:problem=kreska pseudotaktowa	!
.	.	.	.	2c\	-o-	0r	.
.	.	2G/	-si-	2B-\	-ne(m)	.	.
.	.	2F/	-o-	4A\	pec-	.	.
.	.	.	.	4B-\	.	.	.
.	.	2E/	-nem	1c\	.	.	.
!!linebreak:original
=163-	=163-	=163-	=163-	=163-	=163-	=163-	=163-
*	*	*	*	*	*	*custos:c	*
!LO:TX:t=P:problem=kreska pseudotaktowa	!	!	!	!	!	!	!
.	.	4D/	pec-	.	.	1F	in
!	!	!	!	!	!	!LO:LB:g=original	!
*	*	*	*	*	*	*xywh-#23:1525,1503,5692,967	*
.	.	4E/	.	.	.	.	.
.	.	2.F/	.	2B-\	-ca-	.	.
1C	in	.	.	4A\	-to-	2c/	re-
.	.	4F/	-ca-	8G/L	.	.	.
.	.	.	.	8F/J	.	.	.
*	*	*custos:F	*	*	*	*	*
.	.	2E/	-to-	2G\	.	1c\	-miſ-
!	!	!LO:LB:g=original	!	!	!	!	!
=164-	=164-	=164-	=164-	=164-	=164-	=164-	=164-
*	*	*xywh-#227:7884,3889,6345,1377	*	*	*	*	*
*	*	*	*	*custos:A	*	*	*
2F\	re-	4F/	.	2A\	-ru(m)	.	.
!	!	!	!	!LO:LB:g=original	!	!	!
*	*	*	*	*xywh-#123:7867,1644,6002,895	*	*	*
.	.	4G/	.	.	.	.	.
1F	-miſ-	4A\	.	1A	in	2c/	-si-
.	.	4B-\	.	.	.	.	.
.	.	2c\	.	.	.	2A/	-o-
!LO:TX:t=P:problem=kreska pseudotaktowa	!	!	!	!	!	!	!
2G\	-si-	2B-\	.	2G/	re-	2B-/	-nem
=165-	=165-	=165-	=165-	=165-	=165-	=165-	=165-
*	*	*	*	*	*	*lig	*
2F\	-o-	4A\	.	2A/	-mi-	1c	pec-
.	.	4B-\	.	.	.	.	.
2E\	-nem	1c	.	2G/	-ssi-	.	.
4D/	pec-	.	.	2F/	-o-	1.d	.
4D/	-ca-	.	.	.	.	.	.
1G\	-to-	2B-\	.	2G/	-ne(m)	.	.
*	*	*	*	*	*	*Xlig	*
=166-	=166-	=166-	=166-	=166-	=166-	=166-	=166-
.	.	1A	.	4A\	pec-	.	.
.	.	.	.	4B-\	.	.	.
2F\	.	.	.	2.c\	.	2d\	-ca-
1E-X	.	2G,/	-rum	.	.	1G	-to-
.	.	.	.	4B-\	.	.	.
.	.	1c\	pec-	4A/	.	.	.
.	.	.	.	4G/	.	.	.
=167-	=167-	=167-	=167-	=167-	=167-	=167-	=167-
!LO:TX:t=P:problem=kreska pseudotaktowa	!	!	!	!	!	!	!
0D	.	.	.	2.F/	.	2A/	.
.	.	2B-\	-ca-	.	.	2B-/	.
.	.	.	.	4G/	-ca-	.	.
.	.	1A	-to-	1A	-to-	1d	.
=168-	=168-	=168-	=168-	=168-	=168-	=168-	=168-
!	!	!	!	!LO:N:acc=#	!	!	!
2G,\	-rum	2G,/	-rum	2Bn/	-ru(m)	2d\	-rum
!	!	!LO:N:acc=#	!	!	!	!	!
1G	et	1Bn	et	1d	et	1g	et
2G\	ex-	2d\	ex-	2G/	ex-	2g\	ex-
=169-	=169-	=169-	=169-	=169-	=169-	=169-	=169-
1C	-pe-	1c	-pe-	1G	-pe-	1e	-pe-
2F\	-cto	2c\	-cto	2A/	-cto	2f\	-cto
!LO:TX:t=P:problem=kreska pseudotaktowa	!	!	!	!	!	!	!
2F\	re-	2A/	re-	2c\	re-	2f\	re-
=170-	=170-	=170-	=170-	=170-	=170-	=170-	=170-
4F\	-ſu-	4A/	-ſur-	4c\	-sur-	4f\	-ſu-
2F\	-re-	2A/	-re-	2c\	-re-	2f\	-re-
4G\	-cti-	4G/	-cti-	4B-y\	-cti-	4B-/	-cti-
2A\	-o-	2F/	-o-	2A/	-o-	2c/	-o-
2F\	-nem	2c,\	-nem	2A/	-ne(m)	2f\	-nem
=171-	=171-	=171-	=171-	=171-	=171-	=171-	=171-
2G\	re-	2B-y\	re-	2d\	Re-	4r	.
.	.	.	.	.	.	2g\	re-
4G\	-ſu-	4B-\	-ſur-	4d\	-sur-	.	.
2G\	-re-	2B-\	-re-	2d\	-re-	4g\	-ſu-
.	.	.	.	.	.	4g\	-re-
*	*	*	*	*custos:B-	*	*	*
4A\	-cti-	4A\	-cti-	4c\	-cti-	4c/	-cti-
!	!	!	!	!LO:LB:g=original	!	!	!
*	*	*	*	*xywh-#123:7806,2373,5967,895	*	*	*
2B-\	-o-	2G/	-o-	2B-\	-o-	2d\	-o-
=172-	=172-	=172-	=172-	=172-	=172-	=172-	=172-
2G\	-nem	2d,\	-nem	2B-\	-ne(m)	2d\	-nem
1D	mor-	1d	mor-	1B-	mor-	1d	mor-
2D/	-tu-	2d\	-tu-	2B-\	-tu-	1f\	-tu-
=173-	=173-	=173-	=173-	=173-	=173-	=173-	=173-
*custos:F	*custos:c	*	*	*	*	*	*
!	!	!LO:SIC:v:t=custos słowny rum	!	!	!	!	!
1BB-	-o-	2d\	-o-	1B-	-o-	.	.
!LO:LB:g=original	!	!LO:PB:g=original	!	!	!	!	!
*xywh-#325:1565,3918,5963,1020	*	*xywh-#228:1447,787,5963,870	*	*	*	*	*
.	.	4c\	.	.	.	2.f\	-o-
!	!	!LO:TX:t=P:problem=kreska pseudotaktowa	!	!	!	!	!
.	.	4B-\	.	.	.	.	.
!LO:TX:t=P:problem=kreska pseudotaktowa	!	!	!	!	!	!	!
1F	-rum	1c	.	2A/	-ru(m)	.	.
.	.	.	.	.	.	8e\L	.
.	.	.	.	.	.	8d\J	.
*	*	*	*	*	*	*custos:c	*
.	.	.	.	2c\	et	2c/	.
!	!	!	!	!	!	!LO:LB:g=original	!
=174-	=174-	=174-	=174-	=174-	=174-	=174-	=174-
*	*	*	*	*	*	*xywh-#23:1488,2352,5670,835	*
1F	et	1A	-rum.	2F/	vi-	1c	-rum
.	.	.	.	4F/	-ta(m)	.	.
.	.	.	.	4F/	ve(n)-	.	.
!	!	!LO:TX:t=P:problem=kreska pseudotaktowa	!	!	!	!	!
2C/	vi-	1c	Et	2G/	-tu-	1r	.
4C/	-tam	.	.	2A/	-ri	.	.
4C/	ven-	.	.	.	.	.	.
=175-	=175-	=175-	=175-	=175-	=175-	=175-	=175-
2D/	-tu-	2F/	vi-	1.B-	ſe-	1f	Et
2D/	-ri	4F/	-ta(m)	.	.	.	.
!	!	!LO:TX:t=P:problem=kreska pseudotaktowa	!	!	!	!	!
.	.	4F/	ven-	.	.	.	.
4Eny\	ſae-	2G/	-tu-	.	.	2c/	vi-
4E\	-cu-	.	.	.	.	.	.
!	!	!LO:TX:t=P:problem=kreska pseudotaktowa	!	!	!	!	!
2F\	-li	2A/	-ri	2A/	.	4c/	-tam
.	.	.	.	.	.	4c/	ven-
=176-	=176-	=176-	=176-	=176-	=176-	=176-	=176-
2.BB-/	A-	1.B-	ſae-	2G/	.	2d\	-tu-
.	.	.	.	2F/	-cu-	2d\	-ri
4AA/	.	.	.	.	.	.	.
2GG/	.	.	.	2G/	-li	4e\	ſae-
.	.	.	.	.	.	4e\	-cu-
!	!	!LO:TX:t=P:problem=kreska pseudotaktowa	!	!	!	!	!
2FF/	.	2A/	-cu-	2.c\	a-	1f\	-li
=177-	=177-	=177-	=177-	=177-	=177-	=177-	=177-
*lig	*	*	*	*	*	*	*
1C	.	2G/	-li	.	.	.	.
.	.	.	.	8B-\L	.	.	.
.	.	.	.	8A\J	.	.	.
!	!	!LO:TX:t=P:problem=kreska pseudotaktowa	!	!	!	!	!
.	.	2c\	A-	2G/	.	2e\	a-
1F	.	2c\	-men.	0A	-me(n)	1f	-men
.	.	2c\	Et	.	.	.	.
!	!	!LO:TX:t=P:problem=kreska pseudotaktowa	!	!	!	!	!
*Xlig	*	*	*	*	*	*	*
=178-	=178-	=178-	=178-	=178-	=178-	=178-	=178-
1FF	.	2F/	vi-	.	.	1f	et
.	.	4F/	-ta(m)	.	.	.	.
!	!	!LO:TX:t=P:problem=kreska pseudotaktowa	!	!	!	!	!
.	.	4F/	ven-	.	.	.	.
!LO:TX:t=P:problem=kreska pseudotaktowa	!	!	!	!	!	!	!
1C	-men	2G/	-tu-	1c	et	2c/	vi-
!	!	!LO:TX:t=P:problem=kreska pseudotaktowa	!	!	!	!	!
.	.	2G/	-ri	.	.	4c/	-tam
.	.	.	.	.	.	4c/	ven-
=179-	=179-	=179-	=179-	=179-	=179-	=179-	=179-
1F	et	2A/	ſae-	2F/	vi-	2c/	-tu-
!	!	!LO:TX:t=P:problem=kreska pseudotaktowa	!	!	!	!	!
.	.	2G/	-cu-	4F/	-ta(m)	2d\	-ri
.	.	.	.	4F/	ven-	.	.
2C/	vi-	2c\	-li.	2G/	-tu-	2.e\	ſae-
*	*	*	*	*custos:B-	*	*	*
4C/	-tam	4A\	A-	2A/	-ri	.	.
!LO:TX:t=P:problem=kreska pseudotaktowa	!	!LO:TX:t=P:problem=kreska pseudotaktowa	!	!LO:LB:g=original	!	!	!
4C/	ven-	4G\	.	.	.	4e\	-cu-
=180-	=180-	=180-	=180-	=180-	=180-	=180-	=180-
*	*	*	*	*xywh-#123:7823,3084,5923,965	*	*	*
2D/	-tu-	4F/	.	2B-\	ſe-	1f	-li
.	.	4G/	.	.	.	.	.
2D/	-ri	4A\	.	2A/	-cu-	.	.
!	!	!LO:TX:t=P:problem=kreska pseudotaktowa	!	!	!	!	!
.	.	4B-\	.	.	.	.	.
2.E\	ſae-	4c\	.	2G/	-li	2.e\	A-
.	.	4B-\	.	.	.	.	.
.	.	4A\	.	2C/	a-	.	.
!	!	!LO:TX:t=P:problem=kreska pseudotaktowa	!	!	!	!	!
4E\	-cu-	4G\	.	.	.	4d\	.
=181-	=181-	=181-	=181-	=181-	=181-	=181-	=181-
*	*	*lig	*	*lig	*	*	*
2F\	-li	1A	.	1F	.	2c/	.
2FF/	A-	.	.	.	.	2c/	-men
*lig	*	*	*	*	*	*	*
!	!	!LO:TX:t=P:problem=kreska pseudotaktowa	!	!	!	!	!
*	*	*	*	*col	*	*	*
1C	.	1E	.	2.G/	.	4c/	A-
.	.	.	.	.	.	8B-/L	.
.	.	.	.	.	.	8A/J	.
.	.	.	.	.	.	4G/	.
.	.	.	.	4A\	.	4c/	.
*	*	*Xlig	*	*Xlig	*	*	*
*	*	*	*	*Xcol	*	*	*
=182-	=182-	=182-	=182-	=182-	=182-	=182-	=182-
*col	*	*	*	*	*	*	*
*	*	*custos:D	*	*	*	*	*
2.BB-/	.	1D	.	2B-\	.	2F/	.
!	!	!LO:LB:g=original	!	!	!	!	!
*	*	*xywh-#228:1661,1561,5554,844	*	*	*	*	*
.	.	.	.	2F/	.	2.B-/	-men
*Xlig	*	*	*	*	*	*	*
*custos:GG	*	*	*	*	*	*	*
4AA/	.	.	.	.	.	.	.
*Xcol	*	*	*	*	*	*	*
*lig	*	*	*	*	*	*	*
!LO:PB:g=original	!	!	!	!	!	!	!
*xywh-#325:7668,424,6410,1275	*	*	*	*	*	*	*
1GG	.	1D	-men	1G	-men	.	.
.	.	.	.	.	.	2d\	A-
*	*	*	*	*	*	*custos:f	*
.	.	.	.	.	.	4e\	.
!	!	!	!	!	!	!LO:LB:g=original	!
=183-	=183-	=183-	=183-	=183-	=183-	=183-	=183-
*	*	*	*	*	*	*xywh-#23:1400,3166,5743,769	*
*col	*	*	*	*	*	*	*
!	!	!LO:TX:t=P:problem=kreska pseudotaktowa	!	!	!	!	!
2.AA/	.	1A	A-	4c\	a-	4f\	.
.	.	.	.	4B-\	.	8e\L	.
.	.	.	.	.	.	8d\J	.
.	.	.	.	4A\	.	4c/	.
*Xlig	*	*	*	*	*	*	*
4BB-/	.	.	.	8G/L	.	4d\	.
.	.	.	.	8F/J	.	.	.
*Xcol	*	*	*	*	*	*	*
0C	.	2G/	.	2E/	.	4e\	.
.	.	.	.	.	.	4c/	.
.	.	4A\	.	2F/	.	1f\	.
!	!	!LO:TX:t=P:problem=kreska pseudotaktowa	!	!	!	!	!
.	.	4B-\	.	.	.	.	.
=184-	=184-	=184-	=184-	=184-	=184-	=184-	=184-
.	.	2c\	.	2G/	.	.	.
.	.	2G/	.	2c\	.	2e\	.
!	!	!LO:TX:t=P:problem=kreska pseudotaktowa	!	!	!	!	!
1F	-men	1A	-men	1c	-me(n)	2.f\	.
.	.	.	.	.	.	4e\	.
=185-	=185-	=185-	=185-	=185-	=185-	=185-	=185-
0BB-	A-	2.B-\	A-	1B-	a-	4d\	.
.	.	.	.	.	.	4c/	.
.	.	.	.	.	.	2.B-/	.
!	!	!LO:TX:t=P:problem=kreska pseudotaktowa	!	!	!	!	!
.	.	4c\	.	.	.	.	.
.	.	8d\L	.	2F/	-me(n)	.	.
.	.	8c\	.	.	.	.	.
.	.	8B-\	.	.	.	4c/	.
.	.	8A\J	.	.	.	.	.
.	.	1B-\	.	2.F/	a-	2d\	.
=186-	=186-	=186-	=186-	=186-	=186-	=186-	=186-
0FF	-men	.	.	.	.	0f	-men
.	.	.	.	4G/	.	.	.
.	.	4A/	.	4A/	.	.	.
.	.	4G/	.	4B-/	.	.	.
.	.	1A	-men.	1c;	-men	.	.
==	==	==	==	==	==	==	==
*-	*-	*-	*-	*-	*-	*-	*-
!!!system-decoration: s1,s2,s3,s4
!!!ENC: Andrzej Gręziak
!!!END: 2022-01-06
!!!ENC: Urszula Świątek
!!!END: 2022-01-15
!!!ENC-iiif: Jan Barakat
!!!END-iiif: 2022-09-03
